assets/Woman zombie/Flat/woman_zombie_flat.svg

<svg width="32" height="32" viewBox="0 0 32 32" fill="none" xmlns="http://www.w3.org/2000/svg">
<path d="M6.839 14.197C6.77164 12.5175 7.92531 11.6645 7.98933 11.0381C8.04491 10.4943 8.12776 9.30298 8.42458 8.43297C8.62588 7.84294 9.08523 7.40339 9.08523 7.40339C9.08523 7.1226 7.39103 7.5605 7.74062 6.55321C7.99444 5.82185 9.3964 5.15513 9.99485 5.0712C11.4405 4.86846 12.8238 5.47698 12.8238 5.47698C14.341 3.95446 15.452 3.97268 16.0415 4.01062C17.7359 4.11968 18.4354 5.02445 19.4614 5.61738C20.6122 6.28251 23.3942 6.10083 23.7051 10.4219C23.735 10.8387 24.0743 11.3657 24.8554 11.7011C25.5316 11.9234 26.1255 12.4839 26.4954 13.0894C26.9964 13.9098 27.2712 15.7761 26.6081 15.9949C26.1843 16.1346 25.7182 15.7804 25.3062 15.3202C25.0526 15.0368 24.8146 15.2182 24.7155 15.5269C24.5641 15.9988 24.5652 16.3416 24.7544 16.9815C24.9642 17.6913 24.8965 18.4205 24.7931 19.0095C24.5751 20.2511 23.565 21.2948 22.9276 21.6848C21.1452 22.7754 11.3763 22.5446 10.0737 22.2788C9.76724 22.2163 8.61139 21.6104 8.02185 21.0341C7.43231 20.4579 7.40931 19.9738 7.18728 19.92C6.96524 19.8663 6.49146 20.3132 6.19961 19.92C5.84793 19.4463 6.05942 18.468 6.10073 18.1905C6.24596 17.2149 7.1345 16.7514 7.1345 15.9832C7.1345 15.363 6.839 14.7805 6.839 14.197Z" fill="#321B41"/>
<path d="M10 16.1719C11.1046 16.1719 12 15.2764 12 14.1719C12 13.0673 11.1046 12.1719 10 12.1719C8.89543 12.1719 8 13.0673 8 14.1719C8 15.2764 8.89543 16.1719 10 16.1719Z" fill="#00D1ED"/>
<path d="M22 16.1719C23.1046 16.1719 24 15.2764 24 14.1719C24 13.0673 23.1046 12.1719 22 12.1719C20.8954 12.1719 20 13.0673 20 14.1719C20 15.2764 20.8954 16.1719 22 16.1719Z" fill="#00D1ED"/>
<path d="M16.0001 20.5312C12.5594 20.5312 9.60938 21.6719 7.20312 23.8156V29.9062H24.7344V23.8156C22.3281 21.6719 19.4408 20.5312 16.0001 20.5312Z" fill="#1C1C1C"/>
<rect x="13.5" y="17" width="5" height="7.32812" rx="2.5" fill="#0074BA"/>
<path d="M10.1876 16.6484C9.90562 14.04 9.99935 11.9297 9.99935 11.9297C9.99935 9.97646 12.0487 10.2845 12.6446 8.46483C12.7195 8.23602 12.9322 8.28065 13.1094 8.52351C13.9383 9.65998 14.879 10.2656 16.5665 10.4219C17.4979 10.5216 18.7059 10.4628 20.2031 10.4219C21.6062 10.3835 21.8787 11.2698 21.9141 11.9297C22.0078 13.6797 21.9438 15.4562 21.8438 16.6562C21.6472 19.0149 18.7891 21.5833 16.0153 21.5833C13.2415 21.5833 10.4695 19.2569 10.1876 16.6484Z" fill="#37C9CD"/>
<path d="M20.5649 11.7442C20.5092 11.8322 20.413 11.8752 20.3019 11.8833C20.2278 11.8887 20.1652 11.8813 20.0991 11.8262C20.0991 11.8262 20.0906 11.8225 20.0774 11.8158C19.9441 11.7477 19.2125 11.3741 18.2541 11.5532C18.0706 11.5905 17.8881 11.472 17.8627 11.294C17.825 11.1169 17.9495 10.9519 18.133 10.9146C19.4189 10.6706 20.3594 11.2196 20.4612 11.279C20.4651 11.2813 20.4692 11.2836 20.4692 11.2836C20.6261 11.3921 20.6656 11.593 20.5649 11.7442Z" fill="#321B41"/>
<path d="M11.4305 11.7302C11.4852 11.8188 11.5809 11.8628 11.692 11.8721C11.766 11.8783 11.8287 11.8715 11.8954 11.8171C11.8954 11.8171 11.9039 11.8135 11.9172 11.8069C12.0512 11.7402 12.7866 11.3744 13.7431 11.5635C13.9262 11.6028 14.1099 11.4861 14.1372 11.3084C14.1768 11.1317 14.054 10.9655 13.8709 10.9262C12.5877 10.6687 11.6415 11.2078 11.539 11.2661C11.5351 11.2684 11.531 11.2707 11.531 11.2707C11.373 11.3774 11.3314 11.578 11.4305 11.7302Z" fill="#321B41"/>
<path d="M15.5008 13.6123L14.8325 15.8603C14.6883 16.318 15.029 16.7891 15.5008 16.7891H16.5097C16.9815 16.7891 17.3222 16.318 17.178 15.8603L16.4966 13.6123C16.3394 13.1143 15.658 13.1143 15.5008 13.6123Z" fill="#00A6ED"/>
<path d="M21.918 15.4882C21.9081 15.6671 21.8972 15.839 21.8855 16.0025C21.6133 16.0609 21.3177 16.1833 21.0555 16.4316C20.6338 16.8308 20.2508 17.6017 20.2508 19.1094C20.2508 19.2475 20.1388 19.3594 20.0008 19.3594C19.8627 19.3594 19.7508 19.2475 19.7508 19.1094C19.7508 17.5234 20.1542 16.5963 20.7117 16.0685C21.1027 15.6983 21.5459 15.5472 21.918 15.4882Z" fill="#00A6ED"/>
<path d="M10.1721 16.032C10.1545 15.8541 10.1387 15.6789 10.1244 15.5068C10.4732 15.5767 10.8715 15.7322 11.2266 16.0685C11.7841 16.5963 12.1875 17.5234 12.1875 19.1094C12.1875 19.2475 12.0756 19.3594 11.9375 19.3594C11.7995 19.3594 11.6875 19.2475 11.6875 19.1094C11.6875 17.6017 11.3045 16.8308 10.8828 16.4316C10.6585 16.2192 10.4097 16.0989 10.1721 16.032Z" fill="#00A6ED"/>
<path d="M10.6875 23.1719V25.875C10.6875 26.2656 10.7172 27.0156 11.6172 26.8906C12.4453 26.6875 14.157 26.4988 14.25 27.7344C14.3113 28.5481 13.5391 28.7031 12.5938 28.6406C12.0169 28.6025 11.6016 28.8672 11.1719 29.2656C10.7264 29.6787 9.76302 29.9062 9.41406 29.9062H6C5.32812 29.9062 4.78125 29.5 4.26562 28.7656C4.22387 28.699 4.17597 28.6217 4.12475 28.5391C3.90765 28.1888 3.63077 27.7421 3.50781 27.6016C3.42031 27.5016 2.98438 27.0781 2.78125 26.8906L3.22656 24.7969L4.26562 25.5781L4.5625 25.4062L4.98438 22.5781L6.25 24.375L6.53125 24.1875L7.64062 21.6875L8.26562 23.1094C8.33594 23.25 8.52656 23.3844 8.66406 23.1719C8.73438 23.0632 8.73438 22.4219 8.73438 22.0469L10.6875 23.1719Z" fill="#00A6ED"/>
<path d="M21.2925 23.1719V25.875C21.2925 26.2656 21.2628 27.0156 20.3628 26.8906C19.5347 26.6875 17.823 26.4988 17.73 27.7344C17.6687 28.5481 18.4409 28.7031 19.3862 28.6406C19.9631 28.6025 20.3784 28.8672 20.8081 29.2656C21.2536 29.6787 22.217 29.9062 22.5659 29.9062H25.98C26.6519 29.9062 27.1987 29.5 27.7144 28.7656C27.7561 28.699 27.804 28.6217 27.8552 28.5391C28.0723 28.1888 28.3492 27.7421 28.4722 27.6016C28.5597 27.5016 28.9956 27.0781 29.1987 26.8906L28.7534 24.7969L27.7144 25.5781L27.4175 25.4062L26.9956 22.5781L25.73 24.375L25.4487 24.1875L24.3394 21.6875L23.7144 23.1094C23.644 23.25 23.4534 23.3844 23.3159 23.1719C23.2456 23.0632 23.2456 22.4219 23.2456 22.0469L21.2925 23.1719Z" fill="#00A6ED"/>
<path d="M22.2629 20.8936C22.8074 20.8936 23.2489 21.335 23.2489 21.8795V23.5636C23.2489 24.1081 22.8074 24.5495 22.2629 24.5495C21.7184 24.5495 21.2769 24.1081 21.2769 23.5636V21.8795C21.2769 21.335 21.7184 20.8936 22.2629 20.8936Z" fill="#37C9CD"/>
<path d="M25.5253 21.1897C26.0455 21.353 26.3347 21.907 26.1714 22.4272L25.6623 24.0488C25.499 24.569 24.945 24.8582 24.4248 24.6949C23.9046 24.5316 23.6154 23.9776 23.7787 23.4574L24.2878 21.8358C24.4511 21.3156 25.0051 21.0264 25.5253 21.1897Z" fill="#37C9CD"/>
<path d="M28.2378 22.3558C28.7184 22.635 28.8816 23.2509 28.6024 23.7315L27.7679 25.1679C27.4887 25.6485 26.8728 25.8117 26.3922 25.5325C25.9116 25.2533 25.7483 24.6373 26.0275 24.1567L26.862 22.7204C27.1412 22.2398 27.7572 22.0765 28.2378 22.3558Z" fill="#37C9CD"/>
<path d="M30.0612 26.094C30.3517 25.6624 30.2373 25.077 29.8057 24.7865C29.374 24.4959 28.7886 24.6103 28.4981 25.042L28.0303 25.7369C27.7398 26.1686 27.8542 26.754 28.2858 27.0445C28.7175 27.3351 29.3029 27.2207 29.5934 26.789L30.0612 26.094Z" fill="#37C9CD"/>
<path d="M5.8087 22.4272C5.6454 21.907 5.93468 21.353 6.45484 21.1897C6.97499 21.0264 7.52904 21.3156 7.69235 21.8358L8.20146 23.4574C8.36477 23.9776 8.07548 24.5316 7.55533 24.6949C7.03517 24.8582 6.48112 24.569 6.31782 24.0488L5.8087 22.4272Z" fill="#37C9CD"/>
<path d="M3.74234 22.3558C3.26175 22.635 3.0985 23.2509 3.37771 23.7315L4.2122 25.1679C4.49142 25.6485 5.10737 25.8117 5.58797 25.5325C6.06857 25.2533 6.23182 24.6373 5.9526 24.1567L5.11811 22.7204C4.83889 22.2398 4.22294 22.0765 3.74234 22.3558Z" fill="#37C9CD"/>
<path d="M1.91894 26.094C1.62842 25.6624 1.74281 25.077 2.17445 24.7865C2.60609 24.4959 3.19152 24.6103 3.48204 25.042L3.94982 25.7369C4.24035 26.1686 4.12595 26.754 3.69432 27.0445C3.26268 27.3351 2.67725 27.2207 2.38672 26.789L1.91894 26.094Z" fill="#37C9CD"/>
<path d="M9.71724 20.8936C9.17271 20.8936 8.73128 21.335 8.73128 21.8795V23.5636C8.73128 24.1081 9.17271 24.5495 9.71724 24.5495C10.2618 24.5495 10.7032 24.1081 10.7032 23.5636V21.8795C10.7032 21.335 10.2618 20.8936 9.71724 20.8936Z" fill="#37C9CD"/>
<path d="M16.8706 13.3272C17.0538 12.4792 17.8082 11.8438 18.711 11.8438C19.6138 11.8438 20.3682 12.4792 20.5513 13.3272H16.8706Z" fill="#37C9CD"/>
<path d="M13.375 15.5938C14.4105 15.5938 15.25 14.7543 15.25 13.7188C15.25 12.6832 14.4105 11.8438 13.375 11.8438C12.3395 11.8438 11.5 12.6832 11.5 13.7188C11.5 14.7543 12.3395 15.5938 13.375 15.5938Z" fill="#321B41"/>
<path d="M18.875 15.75C19.9105 15.75 20.75 14.9105 20.75 13.875C20.75 13.7385 20.7354 13.6055 20.7077 13.4773C20.5253 12.6328 19.7741 12 18.875 12C17.8395 12 17 12.8395 17 13.875C17 14.9105 17.8395 15.75 18.875 15.75Z" fill="#321B41"/>
<path d="M13.6094 15.1875C14.5068 15.1875 15.2344 14.46 15.2344 13.5625C15.2344 12.665 14.5068 11.9375 13.6094 11.9375C12.7119 11.9375 11.9844 12.665 11.9844 13.5625C11.9844 14.46 12.7119 15.1875 13.6094 15.1875Z" fill="#FFCE7C"/>
<path d="M18.625 15.1875C19.5225 15.1875 20.25 14.46 20.25 13.5625C20.25 12.665 19.5225 11.9375 18.625 11.9375C17.7275 11.9375 17 12.665 17 13.5625C17 14.46 17.7275 15.1875 18.625 15.1875Z" fill="#FFCE7C"/>
<path d="M13.5312 14.1172C13.8764 14.1172 14.1562 13.8374 14.1562 13.4922C14.1562 13.147 13.8764 12.8672 13.5312 12.8672C13.1861 12.8672 12.9062 13.147 12.9062 13.4922C12.9062 13.8374 13.1861 14.1172 13.5312 14.1172Z" fill="#990838"/>
<path d="M18.457 14.1172C18.8022 14.1172 19.082 13.8374 19.082 13.4922C19.082 13.147 18.8022 12.8672 18.457 12.8672C18.1119 12.8672 17.832 13.147 17.832 13.4922C17.832 13.8374 18.1119 14.1172 18.457 14.1172Z" fill="#990838"/>
<path d="M17 13.3272C17 12.5 17.9376 11.8438 18.8404 11.8438C19.7432 11.8438 20.4976 12.4792 20.6807 13.3272H17Z" fill="#37C9CD"/>
<path d="M16.4406 18.4219H14.5C14.2239 18.4219 14 18.198 14 17.9219V17.5632C14.0157 17.5627 14.0314 17.5625 14.0469 17.5625C14.7278 17.5625 15.8273 17.6642 16.4406 18.4219Z" fill="#FFCE7C"/>
<path d="M15.5008 13.6123L14.8325 15.8603C14.6883 16.318 15.029 16.7891 15.5008 16.7891H16.5097C16.9815 16.7891 17.3222 16.318 17.178 15.8603L16.4966 13.6123C16.3394 13.1143 15.658 13.1143 15.5008 13.6123Z" fill="#00A6ED"/>
<path d="M14.1562 19.3125H17C17 17.2125 15.1406 17 14.1562 17C13.6406 17 13 17.2594 13 18.1719C13 19.0844 13.7708 19.3125 14.1562 19.3125Z" fill="black"/>
<path d="M16.55 17.8594H14.6094C14.3332 17.8594 14.1094 17.6355 14.1094 17.3594V17.0007C14.1251 17.0002 14.1407 17 14.1562 17C14.8372 17 15.9367 17.1017 16.55 17.8594Z" fill="#FFCE7C"/>
<path d="M15.4772 13.6182L14.7846 15.8344C14.6352 16.2855 14.9883 16.75 15.4772 16.75H16.5228C17.0117 16.75 17.3648 16.2855 17.2154 15.8344L16.5092 13.6182C16.3463 13.1273 15.6401 13.1273 15.4772 13.6182Z" fill="#00A6ED"/>
</svg>

<svg xmlns="http://www.w3.org/2000/svg" width="32" height="32" fill="none"><path fill="#321B41" d="M6.839 14.197c-.067-1.68 1.086-2.532 1.15-3.159.056-.544.139-1.735.436-2.605.2-.59.66-1.03.66-1.03 0-.28-1.694.158-1.344-.85.253-.731 1.655-1.398 2.254-1.482 1.446-.203 2.829.406 2.829.406 1.517-1.523 2.628-1.504 3.217-1.466 1.695.109 2.394 1.013 3.42 1.606 1.151.666 3.933.484 4.244 4.805.03.417.37.944 1.15 1.28.677.221 1.27.782 1.64 1.387.501.82.776 2.687.113 2.906-.424.14-.89-.215-1.302-.675-.253-.283-.491-.102-.59.207-.152.472-.15.815.038 1.455.21.71.142 1.439.04 2.027-.219 1.242-1.229 2.286-1.866 2.676-1.783 1.09-11.552.86-12.854.594-.307-.063-1.463-.669-2.052-1.245-.59-.576-.613-1.06-.835-1.114-.222-.054-.696.393-.987 0-.352-.474-.14-1.452-.1-1.73.146-.975 1.035-1.439 1.035-2.207 0-.62-.296-1.203-.296-1.786Z"/><path fill="#00D1ED" d="M10 16.172a2 2 0 1 0 0-4 2 2 0 0 0 0 4ZM22 16.172a2 2 0 1 0 0-4 2 2 0 0 0 0 4Z"/><path fill="#1C1C1C" d="M16 20.531c-3.44 0-6.39 1.14-8.797 3.285v6.09h17.531v-6.09C22.328 21.672 19.441 20.53 16 20.53Z"/><rect width="5" height="7.328" x="13.5" y="17" fill="#0074BA" rx="2.5"/><path fill="#37C9CD" d="M10.188 16.648c-.282-2.608-.189-4.718-.189-4.718 0-1.954 2.05-1.646 2.646-3.465.075-.229.287-.184.464.059.83 1.136 1.77 1.742 3.458 1.898.93.1 2.139.04 3.636 0 1.403-.039 1.676.848 1.711 1.508.094 1.75.03 3.526-.07 4.726-.197 2.359-3.055 4.927-5.829 4.927-2.774 0-5.546-2.326-5.827-4.935Z"/><path fill="#321B41" d="M20.565 11.744c-.056.088-.152.131-.263.14a.256.256 0 0 1-.203-.058l-.022-.01a2.889 2.889 0 0 0-1.823-.263c-.183.037-.366-.081-.391-.259-.038-.177.087-.342.27-.38 1.286-.243 2.226.306 2.328.365a.332.332 0 0 1 .104.465ZM11.43 11.73c.055.089.15.133.262.142.074.006.137 0 .203-.055l.022-.01a2.89 2.89 0 0 1 1.826-.244c.183.04.367-.077.394-.255.04-.176-.083-.342-.266-.382-1.283-.257-2.23.282-2.332.34l-.008.005a.332.332 0 0 0-.1.46Z"/><path fill="#00A6ED" d="m15.5 13.612-.668 2.248a.713.713 0 0 0 .669.93h1.009a.713.713 0 0 0 .668-.93l-.681-2.248a.519.519 0 0 0-.996 0ZM21.918 15.488c-.01.18-.02.351-.032.515-.273.058-.568.18-.83.429-.422.399-.805 1.17-.805 2.677a.25.25 0 0 1-.5 0c0-1.586.403-2.513.96-3.04a2.23 2.23 0 0 1 1.207-.58ZM10.172 16.032a33.564 33.564 0 0 1-.048-.525c.35.07.747.225 1.103.562.557.527.96 1.454.96 3.04a.25.25 0 1 1-.5 0c0-1.507-.382-2.278-.804-2.677a1.682 1.682 0 0 0-.71-.4ZM10.688 23.172v2.703c0 .39.03 1.14.93 1.016.827-.203 2.539-.392 2.632.843.061.814-.71.97-1.656.907-.577-.038-.992.226-1.422.625-.446.413-1.409.64-1.758.64H6c-.672 0-1.219-.406-1.734-1.14l-.141-.227c-.217-.35-.494-.797-.617-.937a18.58 18.58 0 0 0-.727-.711l.446-2.094 1.039.781.296-.172.422-2.828 1.266 1.797.281-.188 1.11-2.5.625 1.422c.07.141.26.275.398.063.07-.109.07-.75.07-1.125l1.954 1.125ZM21.293 23.172v2.703c0 .39-.03 1.14-.93 1.016-.828-.203-2.54-.392-2.633.843-.061.814.71.97 1.656.907.577-.038.992.226 1.422.625.446.413 1.409.64 1.758.64h3.414c.672 0 1.219-.406 1.734-1.14l.141-.227c.217-.35.494-.797.617-.937.088-.1.524-.524.727-.711l-.446-2.094-1.039.781-.296-.172-.422-2.828-1.266 1.797-.281-.188-1.11-2.5-.625 1.422c-.07.141-.26.275-.398.063-.07-.109-.07-.75-.07-1.125l-1.953 1.125Z"/><path fill="#37C9CD" d="M22.263 20.894c.544 0 .986.441.986.986v1.684a.986.986 0 0 1-1.972 0V21.88c0-.545.441-.986.986-.986ZM25.525 21.19c.52.163.81.717.646 1.237l-.509 1.622a.987.987 0 1 1-1.883-.592l.509-1.621a.987.987 0 0 1 1.237-.646ZM28.238 22.356c.48.279.644.895.364 1.375l-.834 1.437a1.006 1.006 0 1 1-1.74-1.011l.834-1.437c.28-.48.895-.643 1.376-.364ZM30.061 26.094a.942.942 0 1 0-1.563-1.052l-.468.695a.942.942 0 0 0 1.563 1.052l.468-.695ZM5.809 22.427a.987.987 0 1 1 1.883-.591l.51 1.621a.987.987 0 1 1-1.884.592l-.51-1.622ZM3.742 22.356c-.48.279-.643.895-.364 1.375l.834 1.437a1.006 1.006 0 0 0 1.74-1.011l-.834-1.437a1.006 1.006 0 0 0-1.376-.364ZM1.919 26.094a.942.942 0 1 1 1.563-1.052l.468.695a.942.942 0 1 1-1.563 1.052l-.468-.695ZM9.717 20.894a.986.986 0 0 0-.986.986v1.684a.986.986 0 0 0 1.972 0V21.88a.986.986 0 0 0-.986-.986ZM16.87 13.327a1.884 1.884 0 0 1 3.681 0h-3.68Z"/><path fill="#321B41" d="M13.375 15.594a1.875 1.875 0 1 0 0-3.75 1.875 1.875 0 0 0 0 3.75ZM18.875 15.75a1.875 1.875 0 1 0 0-3.75 1.875 1.875 0 0 0 0 3.75Z"/><path fill="#FFCE7C" d="M13.61 15.188a1.625 1.625 0 1 0 0-3.25 1.625 1.625 0 0 0 0 3.25ZM18.625 15.188a1.625 1.625 0 1 0 0-3.25 1.625 1.625 0 0 0 0 3.25Z"/><path fill="#990838" d="M13.531 14.117a.625.625 0 1 0 0-1.25.625.625 0 0 0 0 1.25ZM18.457 14.117a.625.625 0 1 0 0-1.25.625.625 0 0 0 0 1.25Z"/><path fill="#37C9CD" d="M17 13.327c0-.827.938-1.483 1.84-1.483.903 0 1.658.635 1.84 1.483H17Z"/><path fill="#FFCE7C" d="M16.44 18.422H14.5a.5.5 0 0 1-.5-.5v-.359h.047c.68 0 1.78.101 2.394.859Z"/><path fill="#00A6ED" d="m15.5 13.612-.668 2.248a.713.713 0 0 0 .669.93h1.009a.713.713 0 0 0 .668-.93l-.681-2.248a.519.519 0 0 0-.996 0Z"/><path fill="#000" d="M14.156 19.313H17c0-2.1-1.86-2.313-2.844-2.313-.515 0-1.156.26-1.156 1.172 0 .912.77 1.14 1.156 1.14Z"/><path fill="#FFCE7C" d="M16.55 17.86h-1.94a.5.5 0 0 1-.5-.5V17h.046c.681 0 1.78.102 2.394.86Z"/><path fill="#00A6ED" d="m15.477 13.618-.692 2.216c-.15.451.203.916.692.916h1.046c.489 0 .842-.465.692-.916l-.706-2.216c-.163-.49-.869-.49-1.032 0Z"/></svg>
